Obsidian/actions/24s/show-path-outline.svg

<svg height="24" viewBox="0 0 24 24" width="24" xmlns="http://www.w3.org/2000/svg"><path d="m11 0v1.7460938c-.35059-.01741-.711669-.0455594-1.0371094-.0371094-1.0493.02723-1.97045.1846812-2.78125.4570312-1.6216.54471-2.7790468 1.5560688-3.5605468 2.7929688-1.1085001 1.7542-1.4947063 3.9333156-1.6289063 6.0410156h-1.9921875v5h5v-2.052734c4.2585-.46793 6.90985-2.803825 8.28125-5.2656254.71511-1.2836 1.085244-2.5768406 1.214844-3.6816406h1.503906v-5zm-1.0078125 2.7089844c.3127995-.0081.6648125.0172562 1.0078125.0351562v2.2558594h2.492188c-.128081.94186-.461305 2.0755594-1.083985 3.1933594-1.2295 2.2070996-3.529503 4.2788566-7.408203 4.7226566v-1.916016h-1.9804688c.1338-2.0023.4957557-4.0020125 1.4472657-5.5078125.67791-1.0728 1.6244031-1.9036531 3.0332031-2.3769531.70441-.23662 1.5283875-.38142 2.4921875-.40625z" fill="#bebebe" transform="translate(4 4)"/></svg>

<svg xmlns="http://www.w3.org/2000/svg" width="24" height="24" viewBox="0 0 24 24">
 <defs>
  <style id="current-color-scheme" type="text/css">
   .ColorScheme-Text { color:#bebebe; } .ColorScheme-Highlight { color:#4285f4; }
  </style>
 </defs>
 <path style="fill:currentColor" class="ColorScheme-Text" d="M 11 0 L 11 1.7460938 C 10.64941 1.7286838 10.288331 1.7005344 9.9628906 1.7089844 C 8.9135906 1.7362144 7.9924406 1.8936656 7.1816406 2.1660156 C 5.5600406 2.7107256 4.4025938 3.7220844 3.6210938 4.9589844 C 2.5125937 6.7131844 2.1263875 8.8923 1.9921875 11 L 0 11 L 0 16 L 5 16 L 5 13.947266 C 9.2585 13.479336 11.90985 11.143441 13.28125 8.6816406 C 13.99636 7.3980406 14.366494 6.1048 14.496094 5 L 16 5 L 16 0 L 11 0 z M 9.9921875 2.7089844 C 10.304987 2.7008844 10.657 2.7262406 11 2.7441406 L 11 5 L 13.492188 5 C 13.364107 5.94186 13.030883 7.0755594 12.408203 8.1933594 C 11.178703 10.400459 8.8787 12.472216 5 12.916016 L 5 11 L 3.0195312 11 C 3.1533312 8.9977 3.5152869 6.9979875 4.4667969 5.4921875 C 5.1447069 4.4193875 6.0912 3.5885344 7.5 3.1152344 C 8.20441 2.8786144 9.0283875 2.7338144 9.9921875 2.7089844 z" transform="translate(4 4)"/>
</svg>
